;FLAVOR:Marlin
;TIME:193
;Filament used: 0.0480368m
;Layer height: 0.2
;MINX:11.09
;MINY:80.383
;MINZ:0.2
;MAXX:208.91
;MAXY:139.616
;MAXZ:1.2
;Generated with Cura_SteamEngine 4.12.1
M140 S65
M105
M190 S65
M104 S200
M105
M109 S200
M82 ;absolute extrusion mode
; Ender 3 Custom Start G-code
G92 E0 ; Reset Extruder
G28 ; Home all axes
G1 Z2.0 F3000 ; Move Z Axis up little to prevent scratching of Heat Bed
G1 X0.1 Y20 Z0.3 F5000.0 ; Move to start position
G1 X0.1 Y200.0 Z0.3 F1500.0 E15 ; Draw the first line
G1 X0.4 Y200.0 Z0.3 F5000.0 ; Move to side a little
G1 X0.4 Y20 Z0.3 F1500.0 E30 ; Draw the second line
G92 E0 ; Reset Extruder
G1 Z2.0 F3000 ; Move Z Axis up little to prevent scratching of Heat Bed
G1 X5 Y20 Z0.3 F5000.0 ; Move over to prevent blob squish
G92 E0
G92 E0
G1 F1500 E-6.5
;LAYER_COUNT:1
;LAYER:0
M107
G1 F300 Z1.2
;MESH:addition-braille.stl
G0 F6000 X129.748 Y118.703 Z1.2
;TYPE:WALL-OUTER
G1 F300 Z0.2
G1 F1500 E0
G1 F1200 X129.676 Y118.633 E0.00334
G1 X129.676 Y115.462 E0.10881
G1 X142.889 Y115.462 E0.54827
G1 X142.889 Y118.635 E0.65381
G1 X142.837 Y118.703 E0.65666
G1 X142.765 Y118.633 E0.66
G1 X142.765 Y115.585 E0.76137
G1 X129.8 Y115.585 E1.19259
G1 X129.8 Y118.635 E1.29403
G1 X129.748 Y118.703 E1.29688
G1 F1500 E-5.20312
G1 F300 Z1.2
G0 F6000 X126.992 Y122.402 Z1.2
;TYPE:WALL-INNER
G1 F300 Z0.2
G1 F1500 E1.29688
G1 F1200 X127.069 Y121.483 E1.32755
G1 X128.705 Y122.302 E1.3884
G1 X127.036 Y123.122 E1.45025
G1 X126.992 Y122.402 E1.47425
G0 F6000 X126.575 Y122.13
;TYPE:WALL-OUTER
G1 F1200 X111.383 Y122.13 E1.97953
G1 X111.375 Y122.057 E1.98198
G1 X126.624 Y122.005 E2.48916
G1 X126.719 Y120.861 E2.52734
G1 X129.606 Y122.305 E2.63471
G1 X126.674 Y123.746 E2.74337
G1 X126.575 Y122.13 E2.79722
G0 F6000 X127.079 Y121.827
G1 F1500 E-3.70278
G1 F300 Z1.2
G0 F6000 X110.987 Y122.006 Z1.2
G1 F300 Z0.2
G1 F1500 E2.79722
G1 F1200 X110.973 Y122.13 E2.80137
G1 X86.692 Y122.13 E3.60896
G1 X86.692 Y122.006 E3.61308
G1 X110.987 Y122.006 E4.42114
G1 F1500 E-2.07886
G1 F300 Z1.2
G0 F6000 X129.801 Y128.551 Z1.2
G1 F300 Z0.2
G1 F1500 E4.42114
G1 F1200 X142.765 Y128.551 E4.85232
G1 X142.765 Y118.938 E5.17205
G1 X142.837 Y118.726 E5.1795
G1 X142.888 Y128.623 E5.50868
G1 X129.727 Y128.673 E5.94642
G1 X129.674 Y122.339 E6.15709
G1 X129.676 Y118.938 E6.27021
G1 X129.748 Y118.726 E6.27766
G1 X129.801 Y128.551 E6.60444
G1 F1500 E0.10444
G1 F300 Z1.2
G0 F6000 X127.391 Y122.514 Z1.2
;TYPE:SKIN
G1 F300 Z0.2
G1 F1500 E6.60444
G1 F1200 X127.384 Y122.397 E6.60834
G1 X127.409 Y122.09 E6.61859
G1 X127.827 Y122.299 E6.63413
G1 X127.391 Y122.514 E6.6503
G0 F6000 X128.001 Y122.344
;TYPE:SKIN
G1 F1200 X128.083 Y122.427 E6.65224
G0 F6000 X128.274 Y122.334
G1 F1200 X128.136 Y122.197 E6.65547
G0 F6000 X128.902 Y122.397
G1 F1200 X129.05 Y122.262 E6.66102
G1 F1500 E0.16102
G1 F300 Z1.2
G0 F6000 X126.837 Y122.312 Z1.2
G1 F300 Z0.2
G1 F1500 E6.66102
G1 F1200 X126.755 Y122.23 E6.66295
G1 F1500 E0.16295
G1 F300 Z1.2
G0 F6000 X133.685 Y122.574 Z1.2
;TYPE:WALL-OUTER
G1 F300 Z0.2
G1 F1500 E6.66295
G1 F1200 X133.655 Y122.55 E6.66423
G1 X133.655 Y122.329 E6.67158
G1 X133.917 Y121.858 E6.6895
G1 X133.917 Y121.754 E6.69296
G1 X134.179 Y121.282 E6.71092
G1 X134.179 Y121.178 E6.71438
G1 X134.441 Y120.706 E6.73233
G1 X134.441 Y120.602 E6.73579
G1 X134.703 Y120.131 E6.75372
G1 X134.712 Y120.047 E6.75653
G1 X134.721 Y120.128 E6.75924
G1 X134.836 Y120.35 E6.76755
G1 X134.694 Y120.35 E6.77227
G1 X134.512 Y120.712 E6.78575
G1 X134.512 Y120.812 E6.78908
G1 X134.25 Y121.283 E6.807
G1 X134.25 Y121.388 E6.8105
G1 X133.988 Y121.859 E6.82842
G1 X133.988 Y121.964 E6.83191
G1 X133.727 Y122.435 E6.84982
G1 X133.727 Y122.522 E6.85272
G1 X133.685 Y122.574 E6.85494
G1 F1500 E0.35494
G1 F300 Z1.2
G0 F6000 X137.339 Y125.305 Z1.2
G1 F300 Z0.2
G1 F1500 E6.85494
G1 F1200 X140.166 Y125.305 E6.94897
G1 X140.166 Y125.428 E6.95306
G1 X137.439 Y125.428 E7.04376
G1 X137.39 Y125.407 E7.04553
G1 X137.339 Y125.305 E7.04932
G0 F6000 X137.058 Y124.896
;TYPE:SKIN
G1 F1200 X136.867 Y124.422 E7.06541
G1 X135.836 Y122.26 E7.14078
G1 X135.543 Y121.684 E7.16112
G1 X135.305 Y121.163 E7.17915
G1 F1500 E0.67915
G1 F300 Z1.2
G0 F6000 X138.188 Y122.435 Z1.2
;TYPE:WALL-OUTER
G1 F300 Z0.2
G1 F1500 E7.17915
G1 F1200 X138.21 Y122.413 E7.18018
G1 X138.21 Y122.037 E7.19269
G1 X138.158 Y121.985 E7.19513
G1 X138.158 Y121.828 E7.20036
G1 X138.106 Y121.776 E7.2028
G1 X138.106 Y121.619 E7.20802
G1 X138.053 Y121.566 E7.21052
G1 X138.053 Y121.409 E7.21574
G1 X138.001 Y121.357 E7.21818
G1 X138.001 Y121.201 E7.22337
G1 X137.949 Y121.148 E7.22584
G1 X137.949 Y120.989 E7.23113
G1 X137.896 Y120.937 E7.2336
G1 X137.896 Y120.781 E7.23879
G1 X137.844 Y120.729 E7.24123
G1 X137.844 Y120.571 E7.24649
G1 X137.792 Y120.519 E7.24894
G1 X137.792 Y120.318 E7.25562
G1 X137.861 Y120.226 E7.25945
G1 X138.052 Y120.226 E7.2658
G1 X137.915 Y120.361 E7.2722
G1 X137.915 Y120.686 E7.283
G1 X137.968 Y120.738 E7.28547
G1 X137.968 Y120.895 E7.2907
G1 X138.02 Y120.947 E7.29314
G1 X138.02 Y121.104 E7.29836
G1 X138.072 Y121.156 E7.30081
G1 X138.072 Y121.313 E7.30603
G1 X138.125 Y121.366 E7.30852
G1 X138.125 Y121.523 E7.31375
G1 X138.177 Y121.575 E7.31619
G1 X138.177 Y121.731 E7.32138
G1 X138.229 Y121.784 E7.32385
G1 X138.229 Y121.943 E7.32914
G1 X138.282 Y121.995 E7.33161
G1 X138.282 Y122.151 E7.3368
G1 X138.334 Y122.203 E7.33924
G1 X138.334 Y122.359 E7.34443
G1 X138.386 Y122.444 E7.34775
G1 X138.188 Y122.435 E7.35434
G1 F1500 E0.85434
G1 F300 Z1.2
G0 F6000 X139.246 Y120.445 Z1.2
G1 F300 Z0.2
G1 F1500 E7.35434
G1 F1200 X139.381 Y120.579 E7.36066
G1 X139.381 Y120.791 E7.36772
G1 X139.434 Y120.843 E7.37019
G1 X139.434 Y120.947 E7.37364
G1 X139.486 Y120.999 E7.37609
G1 X139.486 Y121.155 E7.38128
G1 X139.538 Y121.208 E7.38375
G1 X139.538 Y121.367 E7.38904
G1 X139.591 Y121.419 E7.39151
G1 X139.591 Y121.575 E7.39669
G1 X139.643 Y121.627 E7.39914
G1 X139.643 Y121.731 E7.4026
G1 X139.695 Y121.784 E7.40507
G1 X139.695 Y121.943 E7.41036
G1 X139.748 Y121.995 E7.41283
G1 X139.748 Y122.151 E7.41802
G1 X139.8 Y122.203 E7.42046
G1 X139.8 Y122.359 E7.42565
G1 X139.852 Y122.444 E7.42896
G1 X139.769 Y122.444 E7.43173
G1 X139.729 Y122.404 E7.43361
G1 X139.729 Y122.298 E7.43713
G1 X139.676 Y122.246 E7.4396
G1 X139.676 Y122.165 E7.4423
G1 X139.572 Y122.008 E7.44856
G1 X139.572 Y121.907 E7.45192
G1 X139.415 Y121.647 E7.46202
G1 X139.415 Y121.565 E7.46475
G1 X139.293 Y121.341 E7.47323
G1 X139.362 Y121.312 E7.47572
G1 X139.362 Y120.938 E7.48816
G1 X139.31 Y120.886 E7.49061
G1 X139.31 Y120.73 E7.49579
G1 X139.258 Y120.677 E7.49826
G1 X139.258 Y120.467 E7.50525
G1 X139.205 Y120.414 E7.50774
G1 X139.205 Y120.318 E7.51093
G1 X139.297 Y120.226 E7.51526
G1 X139.445 Y120.246 E7.52023
G1 X139.246 Y120.445 E7.52959
G1 F1500 E1.02959
G1 F300 Z1.2
G0 F6000 X137.002 Y111.987 Z1.2
;TYPE:WALL-INNER
G1 F300 Z0.2
G1 F1500 E7.52959
G1 F1200 X137.035 Y112.077 E7.53278
G1 X136.944 Y112.066 E7.53343
G1 X137.002 Y111.987 E7.53415
G0 F6000 X136.732 Y111.692
;TYPE:WALL-OUTER
G1 F1200 X136.836 Y111.587 E7.53907
G1 X137.141 Y111.587 E7.54921
G1 X137.392 Y111.784 E7.55982
G1 X137.444 Y112.045 E7.56867
G1 X137.444 Y112.195 E7.57366
G1 X137.3 Y112.392 E7.58178
G1 X137.09 Y112.496 E7.58957
G1 X136.889 Y112.496 E7.59626
G1 X136.64 Y112.353 E7.60581
G1 X136.535 Y112.142 E7.61365
G1 X136.535 Y111.941 E7.62033
G1 X136.679 Y111.692 E7.6299
G1 X136.732 Y111.692 E7.63166
G0 F6000 X136.985 Y112.056
G0 X136.802 Y111.912
;TYPE:SKIN
G1 F1200 X136.896 Y112.289 E7.63428
G1 F1500 E1.13428
G1 F300 Z1.2
G0 F6000 X139.448 Y109.527 Z1.2
;TYPE:WALL-INNER
G1 F300 Z0.2
G1 F1500 E7.63428
G1 F1200 X139.512 Y109.527 E7.63641
G1 X139.51 Y109.563 E7.63643
G1 X139.448 Y109.576 E7.63665
G1 X139.448 Y109.527 E7.63692
G0 F6000 X139.048 Y109.429
;TYPE:WALL-OUTER
G1 F1200 X139.048 Y109.323 E7.64045
G1 X139.244 Y109.127 E7.64967
G1 X139.351 Y109.127 E7.65323
G1 X139.403 Y109.074 E7.6557
G1 X139.55 Y109.074 E7.66058
G1 X139.852 Y109.27 E7.67256
G1 X139.957 Y109.533 E7.68198
G1 X139.905 Y109.734 E7.68888
G1 X139.708 Y109.931 E7.69815
G1 X139.456 Y109.983 E7.70671
G1 X139.297 Y109.983 E7.712
G1 X139.101 Y109.838 E7.7201
G1 X138.996 Y109.629 E7.72788
G1 X138.996 Y109.481 E7.73281
G1 X139.048 Y109.429 E7.73525
G0 F6000 X139.249 Y109.55
;TYPE:SKIN
G1 F1200 X139.563 Y109.299 E7.73819
G1 F1500 E1.23819
G1 F300 Z1.2
G0 F6000 X137.044 Y107.031 Z1.2
;TYPE:WALL-INNER
G1 F300 Z0.2
G1 F1500 E7.73819
G1 F1200 X136.976 Y107.07 E7.74079
G1 X136.935 Y107.022 E7.74289
G1 X136.978 Y106.964 E7.74331
G1 X137.044 Y107.031 E7.74432
G0 F6000 X137.339 Y106.758
;TYPE:WALL-OUTER
G1 F1200 X137.444 Y106.862 E7.74923
G1 X137.444 Y107.169 E7.75944
G1 X137.248 Y107.418 E7.76998
G1 X137.142 Y107.47 E7.77391
G1 X136.837 Y107.47 E7.78405
G1 X136.587 Y107.274 E7.79462
G1 X136.535 Y107.169 E7.79852
G1 X136.535 Y106.915 E7.80697
G1 X136.679 Y106.666 E7.81653
G1 X136.89 Y106.561 E7.82437
G1 X137.089 Y106.561 E7.83099
G1 X137.339 Y106.705 E7.84059
G1 X137.339 Y106.758 E7.84235
G0 F6000 X136.975 Y107.012
G0 X137.14 Y107.159
;TYPE:SKIN
G1 F1200 X137.189 Y107.207 E7.84349
G1 F1500 E1.34349
G1 F300 Z1.2
G0 F6000 X133.536 Y109.527 Z1.2
;TYPE:WALL-INNER
G1 F300 Z0.2
G1 F1500 E7.84349
G1 F1200 X133.506 Y109.583 E7.8456
G1 X133.438 Y109.559 E7.848
G1 X133.536 Y109.527 E7.84888
G0 F6000 X133.381 Y109.127
;TYPE:WALL-OUTER
G1 F1200 X133.434 Y109.074 E7.85138
G1 X133.581 Y109.074 E7.85627
G1 X133.831 Y109.218 E7.86586
G1 X133.936 Y109.428 E7.87367
G1 X133.936 Y109.682 E7.88212
G1 X133.74 Y109.931 E7.89266
G1 X133.635 Y109.983 E7.89656
G1 X133.329 Y109.983 E7.90673
G1 X133.08 Y109.786 E7.91729
G1 X133.027 Y109.681 E7.92121
G1 X133.027 Y109.429 E7.92959
G1 X133.276 Y109.127 E7.94261
G1 X133.381 Y109.127 E7.9461
G0 F6000 X133.496 Y109.533
G0 X133.392 Y109.35
;TYPE:SKIN
G1 F1200 X133.682 Y109.358 E7.94958
G1 F1500 E1.44958
G1 F300 Z1.2
G0 F6000 X130.966 Y106.993 Z1.2
;TYPE:WALL-INNER
G1 F300 Z0.2
G1 F1500 E7.94958
G1 F1200 X131.01 Y106.963 E7.95135
G1 X131.055 Y107.028 E7.95398
G1 X131.006 Y107.07 E7.95457
G1 X130.966 Y106.993 E7.95508
G0 F6000 X130.566 Y106.968
;TYPE:WALL-OUTER
G1 F1200 X130.566 Y106.864 E7.95854
G1 X130.71 Y106.666 E7.96669
G1 X130.921 Y106.561 E7.97452
G1 X131.121 Y106.561 E7.98118
G1 X131.227 Y106.614 E7.98512
G1 X131.423 Y106.81 E7.99434
G1 X131.475 Y107.116 E8.00466
G1 X131.279 Y107.418 E8.01663
G1 X131.174 Y107.47 E8.02053
G1 X130.868 Y107.47 E8.03071
G1 X130.619 Y107.274 E8.04125
G1 X130.514 Y107.02 E8.05039
G1 X130.566 Y106.968 E8.05284
G0 F6000 X130.794 Y107.035
;TYPE:SKIN
G1 F1200 X131.228 Y106.904 E8.05577
G1 F1500 E1.55577
G1 F300 Z1.2
G0 F6000 X127.459 Y109.527 Z1.2
;TYPE:WALL-INNER
G1 F300 Z0.2
G1 F1500 E8.05577
G1 F1200 X127.515 Y109.527 E8.05763
G1 X127.489 Y109.58 E8.05809
G1 X127.459 Y109.527 E8.05843
G0 F6000 X127.059 Y109.482
;TYPE:WALL-OUTER
G1 F1200 X127.059 Y109.376 E8.06196
G1 X127.202 Y109.179 E8.07006
G1 X127.413 Y109.074 E8.07789
G1 X127.56 Y109.074 E8.08278
G1 X127.612 Y109.127 E8.08525
G1 X127.719 Y109.127 E8.08881
G1 X127.915 Y109.323 E8.09803
G1 X127.915 Y109.43 E8.10159
G1 X127.968 Y109.482 E8.10406
G1 X127.968 Y109.628 E8.10892
G1 X127.771 Y109.931 E8.12094
G1 X127.509 Y109.983 E8.12982
G1 X127.36 Y109.983 E8.13478
G1 X127.151 Y109.826 E8.14347
G1 X127.059 Y109.735 E8.14777
G1 X127.059 Y109.628 E8.15133
G1 X127.006 Y109.534 E8.15492
G1 X127.059 Y109.482 E8.15739
G0 F6000 X127.426 Y109.324
;TYPE:SKIN
G1 F1200 X127.709 Y109.607 E8.16115
G1 F1500 E1.66115
G1 F300 Z1.2
G0 F6000 X124.998 Y109.569 Z1.2
;TYPE:WALL-INNER
G1 F300 Z0.2
G1 F1500 E8.16115
G1 F1200 X125.013 Y109.474 E8.16435
G1 X125.054 Y109.569 E8.16482
G1 X124.998 Y109.569
G0 F6000 X124.598 Y109.629
;TYPE:WALL-OUTER
G1 F1200 X124.546 Y109.577 E8.16727
G1 X124.546 Y109.481 E8.17046
G1 X124.598 Y109.429 E8.17291
G1 X124.598 Y109.323 E8.17643
G1 X124.794 Y109.127 E8.18565
G1 X124.9 Y109.074 E8.18959
G1 X125.152 Y109.074 E8.19797
G1 X125.258 Y109.127 E8.20192
G1 X125.454 Y109.323 E8.21114
G1 X125.454 Y109.43 E8.21469
G1 X125.507 Y109.482 E8.21716
G1 X125.507 Y109.576 E8.22029
G1 X125.454 Y109.628 E8.22276
G1 X125.454 Y109.735 E8.22632
G1 X125.258 Y109.931 E8.23554
G1 X125.153 Y109.983 E8.23944
G1 X124.899 Y109.983 E8.24788
G1 X124.794 Y109.931 E8.25178
G1 X124.598 Y109.735 E8.261
G1 X124.598 Y109.629 E8.26453
G0 F6000 X125.043 Y109.5
G0 X125.155 Y109.316
;TYPE:SKIN
G1 F1200 X125.278 Y109.439 E8.26742
G1 F1500 E1.76742
G1 F300 Z1.2
G0 F6000 X124.998 Y112.082 Z1.2
;TYPE:WALL-INNER
G1 F300 Z0.2
G1 F1500 E8.26742
G1 F1200 X125.013 Y111.987 E8.27062
G1 X125.054 Y112.082 E8.27109
G1 X124.998 Y112.082
G0 F6000 X124.598 Y112.142
;TYPE:WALL-OUTER
G1 F1200 X124.546 Y112.09 E8.27353
G1 X124.546 Y111.994 E8.27673
G1 X124.598 Y111.942 E8.27917
G1 X124.598 Y111.836 E8.2827
G1 X124.794 Y111.64 E8.29192
G1 X124.9 Y111.587 E8.29586
G1 X125.152 Y111.587 E8.30424
G1 X125.258 Y111.64 E8.30818
G1 X125.454 Y111.836 E8.3174
G1 X125.454 Y111.943 E8.32096
G1 X125.507 Y111.995 E8.32343
G1 X125.507 Y112.089 E8.32656
G1 X125.454 Y112.141 E8.32903
G1 X125.454 Y112.248 E8.33258
G1 X125.258 Y112.444 E8.3418
G1 X125.153 Y112.496 E8.3457
G1 X124.899 Y112.496 E8.35415
G1 X124.794 Y112.444 E8.35805
G1 X124.598 Y112.248 E8.36727
G1 X124.598 Y112.142 E8.37079
G0 F6000 X125.043 Y112.013
G0 X125.136 Y111.843
;TYPE:SKIN
G1 F1200 X125.278 Y111.985 E8.37413
G1 F1500 E1.87413
G1 F300 Z1.2
G0 F6000 X125.054 Y107.051 Z1.2
;TYPE:WALL-INNER
G1 F300 Z0.2
G1 F1500 E8.37413
G1 F1200 X124.998 Y107.054 E8.376
G1 X124.998 Y107.014 E8.37733
G1 X125.054 Y107.014 E8.37751
G1 X125.054 Y107.051 E8.37764
G0 F6000 X125.454 Y107.115
;TYPE:WALL-OUTER
G1 F1200 X125.454 Y107.222 E8.38119
G1 X125.258 Y107.418 E8.39041
G1 X125.004 Y107.47 E8.39904
G1 X124.847 Y107.47 E8.40426
G1 X124.743 Y107.365 E8.40917
G1 X124.65 Y107.326 E8.41253
G1 X124.546 Y107.116 E8.42032
G1 X124.546 Y106.967 E8.42528
G1 X124.598 Y106.914 E8.42775
G1 X124.598 Y106.81 E8.43121
G1 X124.794 Y106.614 E8.44043
G1 X124.9 Y106.561 E8.44437
G1 X125.1 Y106.561 E8.45102
G1 X125.153 Y106.614 E8.45351
G1 X125.257 Y106.614 E8.45697
G1 X125.402 Y106.758 E8.46377
G1 X125.507 Y107.063 E8.4745
G1 X125.454 Y107.115 E8.47697
G0 F6000 X124.916 Y106.814
;TYPE:SKIN
G1 F1200 X124.813 Y106.994 E8.47992
G1 F1500 E1.97992
G1 F300 Z1.2
G0 F6000 X131.035 Y112.093 Z1.2
;TYPE:WALL-INNER
G1 F300 Z0.2
G1 F1500 E8.47992
G1 F1200 X130.966 Y112.029 E8.48305
G1 X131.013 Y111.987 E8.48514
G1 X131.075 Y112.036 E8.48537
G1 X131.035 Y112.093 E8.48584
G0 F6000 X130.92 Y112.496
;TYPE:WALL-OUTER
G1 F1200 X130.619 Y112.299 E8.49781
G1 X130.566 Y112.194 E8.50172
G1 X130.566 Y111.89 E8.51183
G1 X130.763 Y111.64 E8.52242
G1 X130.869 Y111.587 E8.52636
G1 X131.121 Y111.587 E8.53474
G1 X131.371 Y111.731 E8.54434
G1 X131.475 Y111.941 E8.55213
G1 X131.475 Y112.142 E8.55882
G1 X131.332 Y112.392 E8.5684
G1 X131.122 Y112.496 E8.57619
G1 X130.92 Y112.496 E8.58291
G0 F6000 X131.045 Y112.075
G0 X130.877 Y112.21
;TYPE:SKIN
G1 F1200 X130.762 Y112.094 E8.58562
G1 F1500 E2.08562
G1 F300 Z1.2
G0 F6000 X142.956 Y109.569 Z1.2
;TYPE:WALL-INNER
G1 F300 Z0.2
G1 F1500 E8.58562
G1 F1200 X142.971 Y109.474 E8.58882
G1 X143.013 Y109.567 E8.58929
G1 X142.956 Y109.569
G0 F6000 X142.556 Y109.629
;TYPE:WALL-OUTER
G1 F1200 X142.504 Y109.577 E8.59174
G1 X142.504 Y109.481 E8.59493
G1 X142.556 Y109.429 E8.59738
G1 X142.556 Y109.323 E8.6009
G1 X142.752 Y109.127 E8.61012
G1 X142.859 Y109.074 E8.61409
G1 X143.11 Y109.074 E8.62244
G1 X143.215 Y109.127 E8.62635
G1 X143.413 Y109.324 E8.63564
G1 X143.413 Y109.429 E8.63914
G1 X143.465 Y109.481 E8.64158
G1 X143.465 Y109.577 E8.64478
G1 X143.413 Y109.629 E8.64722
G1 X143.413 Y109.734 E8.65071
G1 X143.215 Y109.931 E8.66
G1 X143.111 Y109.983 E8.66387
G1 X142.858 Y109.983 E8.67229
G1 X142.752 Y109.931 E8.67621
G1 X142.556 Y109.735 E8.68543
G1 X142.556 Y109.629 E8.68896
G0 F6000 X143.001 Y109.5
G0 X143.173 Y109.515
;TYPE:SKIN
G1 F1200 X142.782 Y109.407 E8.69127
G1 F1500 E2.19127
G1 F300 Z1.2
G0 F6000 X145.209 Y109.236 Z1.2
;TYPE:WALL-OUTER
G1 F300 Z0.2
G1 F1500 E8.69127
G1 F1200 X145.37 Y109.074 E8.69887
G1 X145.518 Y109.074 E8.70379
G1 X145.57 Y109.127 E8.70626
G1 X145.677 Y109.127 E8.70982
